!!!SOCIAL_FUNCTION:	war songs
!!!PDT:	1913
!!!OTL: No_81_A_Song_of_Indecision.krn
!!!REG: Great_Lakes
!!!LANG: Non-Tone
!!!LING_GROUP: Algonquin
**kern	**kern
*staff2	*staff1
=1-	=1-
*clefF4	*clefF4
*k[]	*k[]
*M2/4	*M2/4
8GG/L	8d\L
8GG/J	8d\J
8GG/L	8.d\L
8GG/J	.
.	16d\Jk
=2	=2
8GG/L	8d\L
8GG/J	16d\L
.	16d\JJ
8GG/L	4d\
8GG/J	.
=3	=3
2r	8c\L
.	8c\J
.	8.c\L
.	16c\Jk
=4	=4
2r	8A\L
.	16G\L
.	16G\JJ
.	4G\
=5	=5
2r	8G\L
.	8G\J
.	8.G\L
.	16G\Jk
=6	=6
2r	8G\L
.	16E\L
.	16E\JJ
.	4E\
=7	=7
2r	8E\L
.	8E\J
.	8.G\L
.	16G\Jk
=8	=8
2r	8G\L
.	16G\L
.	16G\JJ
.	4G\
=9||	=9||
*M3/4	*M3/4
2.r	16A\LL
.	16A\J
.	8c\J
.	8c\L
.	16c\L
.	16c\JJ
.	4c\
=10||	=10||
*M2/4	*M2/4
2r	8A\L
.	8c\J
.	8.c\L
.	16c\Jk
=11	=11
2r	8A\L
.	16G\L
.	16G\JJ
.	4G\
=12	=12
2r	8A\L
.	8A\J
.	8.c\L
.	16c\Jk
=13	=13
2r	8A\L
.	16G\L
.	16G\JJ
.	4G\
=14	=14
2r	8E\L
.	8D\J
.	8.D\L
.	16D\Jk
=15	=15
2r	8D/L
.	16C/L
.	16C/JJ
.	4C/
=16	=16
2r	8C/L
.	8C/J
.	8.C/L
.	16C/Jk
=17	=17
2r	8C/L
.	16C/L
.	16C/JJ
.	4C/
==	==
*-	*-
